X: 1
T: Lieutenant Howard Douglas
C: Robert Mackintosh
C: Winston Fizgerald Collection
S: Arr. T. Traub 11-25-2002
R: strathspey
M: 4/4
L: 1/8
K: Dm
d>c |\
"Dm"A<dd>c A<dd<e | "C"C>Ec>A G/F/E/D/ C>E |\
"Dm"D<dd>c A<dd<e | "F"f>a"C"g>e "Dm"d/d/d :|
e/f/g |\
"Dm"a<df>d a/g/f/e/ f<d | "C"g>c e<c g>c e<g |\
"Dm"a<df>d a/g/f/e/ f<d | "C"c<a"Am"g>e "Dm"d/d/d ||
e/f/g |\
"Dm"a<df>d "G"a/g/f/e/ f<d | "C"g>c e<c g>c e<g |\
"Dm"a>g e<c "C"f>e d<e | "Am"d>c A>c "Dm"d/d/d d |]
